X: 42263
T: Wearing Of The Green, The
R: hornpipe
M: 4/4
K: Amajor
FF FF/E/ FA- AF|FE E>F E3 A|B*G dd/c/ BA F>D|ED D>D D3 D/E/|
F2 F>E FA AA/F/|FE- EF E3 A|BG d>c BA FD|ED- DE D3||
BA AF AF DE|F2 F/G/F/E/ F3 d/c/|BA A/B/A/F/ AF D>E|FE- EF EF/E/ B/C/D/E/|
Fz/F/ F/F/E F*A A>F|FE EF E3 A|BG dc B>A FD|ED DE D2||

